resources/themes/cura/icons/tab_monitor.svg

<?xml version="1.0" encoding="UTF-8" standalone="no"?>
<svg width="19px" height="19px" viewBox="0 0 19 19" version="1.1" xmlns="http://www.w3.org/2000/svg" xmlns:xlink="http://www.w3.org/1999/xlink" xmlns:sketch="http://www.bohemiancoding.com/sketch/ns">
    <!-- Generator: Sketch 3.4.4 (17249) - http://www.bohemiancoding.com/sketch -->
    <title>Fill 1 Copy 3</title>
    <desc>Created with Sketch.</desc>
    <defs></defs>
    <g id="Page-1" stroke="none" stroke-width="1" fill="none" fill-rule="evenodd" sketch:type="MSPage">
        <g id="HIG" sketch:type="MSArtboardGroup" transform="translate(-718.000000, -2432.000000)" fill="#FFFFFF">
            <path d="M718,2432 L737,2432 L737,2432.90476 L718,2432.90476 L718,2432 L718,2432 Z M718,2450.09524 L719.737762,2450.09524 L721.464456,2449.19048 L733.599225,2449.19048 L735.296978,2450.09524 L737,2450.09524 L737,2451 L735.298343,2451 L733.599225,2450.09524 L721.463296,2450.09524 L719.737762,2450.99006 L718,2451 L718,2450.09524 L718,2450.09524 Z M736.136364,2432.90476 L737,2432.90476 L737,2450.09524 L736.136364,2450.09524 L736.136364,2432.90476 L736.136364,2432.90476 Z M718,2432.90476 L718.863636,2432.90476 L718.863636,2450.09524 L718,2450.09524 L718,2432.90476 L718,2432.90476 Z M720.590909,2434.71429 L734.409091,2434.71429 L734.409091,2447.38095 L720.590909,2447.38095 L720.590909,2434.71429 L720.590909,2434.71429 Z M721.454545,2435.61905 L733.545455,2435.61905 L733.545455,2446.47619 L721.454545,2446.47619 L721.454545,2435.61905 L721.454545,2435.61905 Z M725.772727,2435.61905 L729.227273,2435.61905 L729.227273,2438.33333 L725.772727,2438.33333 L725.772727,2435.61905 L725.772727,2435.61905 Z M723.181818,2445.57143 L731.818182,2445.57143 L731.818182,2446.47619 L723.181818,2446.47619 L723.181818,2445.57143 L723.181818,2445.57143 Z M726.636364,2438.33333 L728.363636,2438.33333 L728.363636,2439.2381 L726.636364,2439.2381 L726.636364,2438.33333 L726.636364,2438.33333 Z" id="Fill-1-Copy-3" sketch:type="MSShapeGroup"></path>
        </g>
    </g>
</svg>

<?xml version="1.0" encoding="UTF-8" standalone="no"?>
<svg
   xmlns:sketch="http://www.bohemiancoding.com/sketch/ns"
   xmlns:dc="http://purl.org/dc/elements/1.1/"
   xmlns:cc="http://creativecommons.org/ns#"
   xmlns:rdf="http://www.w3.org/1999/02/22-rdf-syntax-ns#"
   xmlns:svg="http://www.w3.org/2000/svg"
   xmlns="http://www.w3.org/2000/svg"
   xmlns:sodipodi="http://sodipodi.sourceforge.net/DTD/sodipodi-0.dtd"
   xmlns:inkscape="http://www.inkscape.org/namespaces/inkscape"
   width="30"
   height="30"
   viewBox="0 0 30 30"
   version="1.1"
   id="svg2"
   inkscape:version="0.91 r13725"
   sodipodi:docname="tab_monitor.svg">
  <metadata
     id="metadata15">
    <rdf:RDF>
      <cc:Work
         rdf:about="">
        <dc:format>image/svg+xml</dc:format>
        <dc:type
           rdf:resource="http://purl.org/dc/dcmitype/StillImage" />
        <dc:title>Fill 1 Copy 3</dc:title>
      </cc:Work>
    </rdf:RDF>
  </metadata>
  <sodipodi:namedview
     pagecolor="#000000"
     bordercolor="#666666"
     borderopacity="1"
     objecttolerance="10"
     gridtolerance="10"
     guidetolerance="10"
     inkscape:pageopacity="0"
     inkscape:pageshadow="2"
     inkscape:window-width="769"
     inkscape:window-height="716"
     id="namedview13"
     showgrid="false"
     showborder="true"
     inkscape:zoom="12.421053"
     inkscape:cx="19.963695"
     inkscape:cy="9.5"
     inkscape:window-x="549"
     inkscape:window-y="180"
     inkscape:window-maximized="0"
     inkscape:current-layer="svg2" />
  <!-- Generator: Sketch 3.4.4 (17249) - http://www.bohemiancoding.com/sketch -->
  <title
     id="title4">Fill 1 Copy 3</title>
  <desc
     id="desc6">Created with Sketch.</desc>
  <defs
     id="defs8" />
  <g
     id="Page-1"
     sketch:type="MSPage"
     style="fill:none;fill-rule:evenodd;stroke:none;stroke-width:1"
     transform="matrix(1.3157895,0,0,1.3157895,2.5,2.4999995)">
    <g
       id="HIG"
       sketch:type="MSArtboardGroup"
       transform="translate(-718,-2432)"
       style="fill:#ffffff">
      <path
         d="m 718,2432 19,0 0,0.9048 -19,0 0,-0.9048 0,0 z m 0,18.0952 1.73776,0 1.7267,-0.9047 12.13477,0 1.69775,0.9047 1.70302,0 0,0.9048 -1.70166,0 -1.69911,-0.9048 -12.13593,0 -1.72554,0.8949 L 718,2451 l 0,-0.9048 0,0 z m 18.13636,-17.1904 0.86364,0 0,17.1904 -0.86364,0 0,-17.1904 0,0 z m -18.13636,0 0.86364,0 0,17.1904 -0.86364,0 0,-17.1904 0,0 z m 2.59091,1.8095 13.81818,0 0,12.6667 -13.81818,0 0,-12.6667 0,0 z m 0.86364,0.9047 12.0909,0 0,10.8572 -12.0909,0 0,-10.8572 0,0 z m 4.31818,0 3.45454,0 0,2.7143 -3.45454,0 0,-2.7143 0,0 z m -2.59091,9.9524 8.63636,0 0,0.9048 -8.63636,0 0,-0.9048 0,0 z m 3.45454,-7.2381 1.72728,0 0,0.9048 -1.72728,0 0,-0.9048 0,0 z"
         id="Fill-1-Copy-3"
         sketch:type="MSShapeGroup"
         inkscape:connector-curvature="0" />
    </g>
  </g>
</svg>
